lending/img/svg/basket_empty.svg

<svg width="53" height="43" viewBox="0 0 53 43" fill="none" xmlns="http://www.w3.org/2000/svg">
<path opacity="0.502976" fill-rule="evenodd" clip-rule="evenodd" d="M10.6571 0C14.8992 0 18.3387 3.4278 18.3387 7.65455C18.3387 11.8823 14.8992 15.3091 10.6571 15.3091C6.41591 15.3091 2.97642 11.8823 2.97642 7.65455C2.97742 3.4278 6.41591 0 10.6571 0ZM42.3429 0C46.5851 0 50.0215 3.4278 50.0215 7.65455C50.0215 11.8823 46.5841 15.3091 42.3429 15.3091C38.0997 15.3091 34.6622 11.8823 34.6622 7.65455C34.6622 3.4278 38.1007 0 42.3429 0ZM26.5 23.3876C15.7932 23.3876 5.96841 29.2213 0.861357 38.6087C0.0757331 40.0537 0.613529 41.8586 2.06337 42.6405C3.51422 43.4225 5.32426 42.8865 6.10788 41.4426C10.1725 33.975 17.9855 29.3343 26.5 29.3343C35.0144 29.3343 42.8275 33.975 46.8931 41.4436C47.6767 42.8875 49.4908 43.4225 50.9376 42.6395C52.3864 41.8566 52.9242 40.0507 52.1386 38.6087C47.0306 29.2203 37.2067 23.3876 26.5 23.3876Z" fill="white"/>
</svg>

<svg width="53" height="43" fill="none" xmlns="http://www.w3.org/2000/svg"><path opacity=".503" fill-rule="evenodd" clip-rule="evenodd" d="M10.657 0C14.9 0 18.34 3.428 18.34 7.655s-3.44 7.654-7.682 7.654c-4.241 0-7.68-3.427-7.68-7.654S6.415 0 10.656 0zm31.686 0c4.242 0 7.678 3.428 7.678 7.655s-3.437 7.654-7.678 7.654c-4.243 0-7.68-3.427-7.68-7.654S38.1 0 42.342 0zM26.5 23.388A29.16 29.16 0 00.861 38.608a2.968 2.968 0 001.202 4.033 2.99 2.99 0 004.045-1.198A23.197 23.197 0 0126.5 29.334a23.2 23.2 0 0120.393 12.11 2.988 2.988 0 004.045 1.195 2.968 2.968 0 001.2-4.03A29.16 29.16 0 0026.5 23.388z" fill="#fff"/></svg>
